icons/githubactions/githubactions-original.svg

<?xml version="1.0" encoding="UTF-8" standalone="no"?>
<svg
   width="128"
   height="128"
   viewBox="0 0 128 128"
   fill="none"
   version="1.1"
   id="svg30"
   sodipodi:docname="githubactions-original.svg"
   inkscape:version="1.2.1 (9c6d41e410, 2022-07-14)"
   xmlns:inkscape="http://www.inkscape.org/namespaces/inkscape"
   xmlns:sodipodi="http://sodipodi.sourceforge.net/DTD/sodipodi-0.dtd"
   xmlns="http://www.w3.org/2000/svg"
   xmlns:svg="http://www.w3.org/2000/svg">
  <defs
     id="defs34" />
  <sodipodi:namedview
     id="namedview32"
     pagecolor="#ffffff"
     bordercolor="#666666"
     borderopacity="1.0"
     inkscape:showpageshadow="2"
     inkscape:pageopacity="0.0"
     inkscape:pagecheckerboard="0"
     inkscape:deskcolor="#d1d1d1"
     showgrid="false"
     inkscape:zoom="2.8763042"
     inkscape:cx="81.702068"
     inkscape:cy="18.426424"
     inkscape:window-width="1920"
     inkscape:window-height="947"
     inkscape:window-x="0"
     inkscape:window-y="27"
     inkscape:window-maximized="1"
     inkscape:current-layer="svg30" />
  <path
     id="path2"
     style="color:#000000;clip-rule:evenodd;fill:#2088ff;fill-rule:evenodd;stroke-linecap:round;stroke-linejoin:round"
     d="M 26.666016 0 C 11.969801 0 0 11.969801 0 26.666016 C 0 39.536875 9.1812296 50.317239 21.333984 52.796875 L 21.333984 90.666016 C 21.333984 102.43636 31.014453 112 42.666016 112 L 42.861328 112 C 44.162798 121.02335 51.961257 128 61.333984 128 C 71.611678 128 80 119.61168 80 109.33398 C 80 99.056298 71.611679 90.666016 61.333984 90.666016 C 51.961919 90.666016 44.163625 97.643312 42.861328 106.66602 L 42.666016 106.66602 C 33.929352 106.66602 26.666016 99.514297 26.666016 90.666016 L 26.666016 63.779297 C 30.035366 67.205423 34.721427 69.333984 39.90625 69.333984 L 42.861328 69.333984 C 44.163624 78.356693 51.961918 85.333984 61.333984 85.333984 C 70.706052 85.333984 78.502677 78.356692 79.804688 69.333984 L 90.861328 69.333984 C 92.163625 78.356692 99.961924 85.333984 109.33398 85.333984 C 119.61168 85.333984 128 76.943707 128 66.666016 C 128 56.388322 119.61168 48 109.33398 48 C 99.961262 48 92.162798 54.97665 90.861328 64 L 79.804688 64 C 78.503504 54.97665 70.706714 48 61.333984 48 C 51.961255 48 44.162797 54.97665 42.861328 64 L 39.90625 64 C 33.472722 64 28.113419 59.411251 26.917969 53.328125 C 41.498256 53.191538 53.333984 41.277761 53.333984 26.666016 C 53.333984 11.969808 41.362277 2.3684734e-15 26.666016 0 z M 26.666016 5.3339844 C 38.480101 5.3339844 48 14.851981 48 26.666016 C 48 38.480108 38.480108 48 26.666016 48 C 14.851981 48 5.3339844 38.480101 5.3339844 26.666016 C 5.3339844 14.851988 14.851988 5.3339844 26.666016 5.3339844 z M 21.451172 12.875 C 18.66891 12.889104 16 15.122997 16 18.166016 L 16 35.208984 C 16 39.251534 20.708766 41.872231 24.144531 39.742188 L 37.779297 31.287109 C 41.036414 29.26749 41.053383 24.284971 37.810547 22.242188 L 24.175781 13.652344 C 23.317539 13.111693 22.378592 12.870299 21.451172 12.875 z M 21.333984 18.166016 L 34.96875 26.753906 L 21.333984 35.208984 L 21.333984 18.166016 z M 61.333984 53.333984 C 68.729323 53.333984 74.666016 59.270677 74.666016 66.666016 C 74.666016 74.061352 68.729323 80 61.333984 80 C 53.938648 80 48 74.061352 48 66.666016 C 48 59.270677 53.938648 53.333984 61.333984 53.333984 z M 109.33398 53.333984 C 116.72934 53.333984 122.66602 59.270676 122.66602 66.666016 C 122.66602 74.061353 116.72934 80 109.33398 80 C 101.93865 80 96 74.061352 96 66.666016 C 96 59.270677 101.93865 53.333984 109.33398 53.333984 z M 66.765625 60.285156 A 2.6666651 2.6666651 0 0 0 64.878906 61.064453 L 58.578125 67.359375 L 56.486328 65.275391 A 2.6666651 2.6666651 0 0 0 52.714844 65.28125 A 2.6666651 2.6666651 0 0 0 52.722656 69.052734 L 56.697266 73.013672 A 2.6669317 2.6669317 0 0 0 60.462891 73.011719 L 68.648438 64.837891 A 2.6666651 2.6666651 0 0 0 68.650391 61.066406 A 2.6666651 2.6666651 0 0 0 66.765625 60.285156 z M 114.76562 60.285156 A 2.6666651 2.6666651 0 0 0 112.87891 61.064453 L 106.57812 67.359375 L 104.48633 65.275391 A 2.6666651 2.6666651 0 0 0 100.71484 65.28125 A 2.6666651 2.6666651 0 0 0 100.72266 69.052734 L 104.69727 73.013672 A 2.6669317 2.6669317 0 0 0 108.46289 73.011719 L 116.64844 64.837891 A 2.6666651 2.6666651 0 0 0 116.65039 61.066406 A 2.6666651 2.6666651 0 0 0 114.76562 60.285156 z M 61.333984 96 C 68.729323 96 74.666016 101.93865 74.666016 109.33398 C 74.666016 116.72934 68.729324 122.66602 61.333984 122.66602 C 53.938647 122.66602 48 116.72934 48 109.33398 C 48 101.93865 53.938648 96 61.333984 96 z M 56 105.33398 C 53.806536 105.33398 52 107.14053 52 109.33398 C 52 111.52854 53.807822 113.33398 56 113.33398 C 58.192177 113.33398 60 111.52854 60 109.33398 C 60 107.14053 58.193464 105.33398 56 105.33398 z M 66.666016 105.33398 C 64.472551 105.33398 62.666016 107.14053 62.666016 109.33398 C 62.666016 111.52854 64.473838 113.33398 66.666016 113.33398 C 68.858192 113.33398 70.666016 111.52854 70.666016 109.33398 C 70.666016 107.14053 68.859478 105.33398 66.666016 105.33398 z M 56 108 C 56.749462 108 57.333984 108.58454 57.333984 109.33398 C 57.333984 110.08663 56.750749 110.66602 56 110.66602 C 55.24925 110.66602 54.666016 110.08663 54.666016 109.33398 C 54.666016 108.58454 55.250536 108 56 108 z M 66.666016 108 C 67.415478 108 68 108.58454 68 109.33398 C 68 110.08663 67.416765 110.66602 66.666016 110.66602 C 65.915264 110.66602 65.333984 110.08663 65.333984 109.33398 C 65.333984 108.58454 65.916551 108 66.666016 108 z " />
  <path
     id="path8"
     style="color:#000000;clip-rule:evenodd;fill:#79b8ff;fill-rule:evenodd;stroke-linecap:round;stroke-linejoin:round;-inkscape-stroke:none"
     d="M 109.33398 90.666016 C 99.951155 90.666016 92.146253 97.659493 90.857422 106.69727 A 2.6666651 2.6666651 0 0 0 90.591797 106.68555 L 87.892578 106.77539 A 2.6666651 2.6666651 0 0 0 85.314453 109.52734 A 2.6666651 2.6666651 0 0 0 88.066406 112.10547 L 90.765625 112.01758 A 2.6666651 2.6666651 0 0 0 90.863281 112.01172 C 92.169816 121.02939 99.965322 128 109.33398 128 C 119.61168 128 128 119.61168 128 109.33398 C 128 99.056299 119.61168 90.666016 109.33398 90.666016 z M 109.33398 96 C 116.72934 96 122.66602 101.93865 122.66602 109.33398 C 122.66602 116.72934 116.72934 122.66602 109.33398 122.66602 C 101.93865 122.66602 96 116.72934 96 109.33398 C 96 101.93865 101.93865 96 109.33398 96 z " />
</svg>

<svg xmlns="http://www.w3.org/2000/svg" fill="none" viewBox="0 0 128 128"><path fill="#2088ff" fill-rule="evenodd" d="M26.666 0C11.97 0 0 11.97 0 26.666c0 12.87 9.181 23.651 21.334 26.13v37.87c0 11.77 9.68 21.334 21.332 21.334h.195c1.302 9.023 9.1 16 18.473 16C71.612 128 80 119.612 80 109.334s-8.388-18.668-18.666-18.668c-9.372 0-17.17 6.977-18.473 16h-.195c-8.737 0-16-7.152-16-16V63.779a18.514 18.514 0 0 0 13.24 5.555h2.955c1.303 9.023 9.1 16 18.473 16 9.372 0 17.169-6.977 18.47-16h11.057c1.303 9.023 9.1 16 18.473 16 10.278 0 18.666-8.39 18.666-18.668C128 56.388 119.612 48 109.334 48c-9.373 0-17.171 6.977-18.473 16H79.805c-1.301-9.023-9.098-16-18.471-16s-17.171 6.977-18.473 16h-2.955c-6.433 0-11.793-4.589-12.988-10.672 14.58-.136 26.416-12.05 26.416-26.662C53.334 11.97 41.362 0 26.666 0zm0 5.334A21.292 21.292 0 0 1 48 26.666 21.294 21.294 0 0 1 26.666 48 21.292 21.292 0 0 1 5.334 26.666 21.29 21.29 0 0 1 26.666 5.334zm-5.215 7.541C18.67 12.889 16 15.123 16 18.166v17.043c0 4.043 4.709 6.663 8.145 4.533l13.634-8.455c3.257-2.02 3.274-7.002.032-9.045l-13.635-8.59a5.024 5.024 0 0 0-2.725-.777zm-.117 5.291 13.635 8.588-13.635 8.455V18.166zm40 35.168a13.29 13.29 0 0 1 13.332 13.332A13.293 13.293 0 0 1 61.334 80 13.294 13.294 0 0 1 48 66.666a13.293 13.293 0 0 1 13.334-13.332zm48 0a13.29 13.29 0 0 1 13.332 13.332A13.293 13.293 0 0 1 109.334 80 13.294 13.294 0 0 1 96 66.666a13.293 13.293 0 0 1 13.334-13.332zm-42.568 6.951a2.667 2.667 0 0 0-1.887.78l-6.3 6.294-2.093-2.084a2.667 2.667 0 0 0-3.771.006 2.667 2.667 0 0 0 .008 3.772l3.974 3.96a2.667 2.667 0 0 0 3.766-.001l8.185-8.174a2.667 2.667 0 0 0 .002-3.772 2.667 2.667 0 0 0-1.884-.78zm48 0a2.667 2.667 0 0 0-1.887.78l-6.3 6.294-2.093-2.084a2.667 2.667 0 0 0-3.771.006 2.667 2.667 0 0 0 .008 3.772l3.974 3.96a2.667 2.667 0 0 0 3.766-.001l8.185-8.174a2.667 2.667 0 0 0 .002-3.772 2.667 2.667 0 0 0-1.884-.78zM61.334 96a13.293 13.293 0 0 1 13.332 13.334 13.29 13.29 0 0 1-13.332 13.332A13.293 13.293 0 0 1 48 109.334 13.294 13.294 0 0 1 61.334 96zM56 105.334c-2.193 0-4 1.807-4 4 0 2.195 1.808 4 4 4s4-1.805 4-4c0-2.193-1.807-4-4-4zm10.666 0c-2.193 0-4 1.807-4 4 0 2.195 1.808 4 4 4s4-1.805 4-4c0-2.193-1.807-4-4-4zM56 108c.75 0 1.334.585 1.334 1.334 0 .753-.583 1.332-1.334 1.332-.75 0-1.334-.58-1.334-1.332 0-.75.585-1.334 1.334-1.334zm10.666 0c.75 0 1.334.585 1.334 1.334 0 .753-.583 1.332-1.334 1.332-.75 0-1.332-.58-1.332-1.332 0-.75.583-1.334 1.332-1.334z" clip-rule="evenodd" color="#000"/><path fill="#79b8ff" fill-rule="evenodd" d="M109.334 90.666c-9.383 0-17.188 6.993-18.477 16.031a2.667 2.667 0 0 0-.265-.011l-2.7.09a2.667 2.667 0 0 0-2.578 2.751 2.667 2.667 0 0 0 2.752 2.578l2.7-.087a2.667 2.667 0 0 0 .097-.006C92.17 121.029 99.965 128 109.334 128c10.278 0 18.666-8.388 18.666-18.666s-8.388-18.668-18.666-18.668zm0 5.334a13.293 13.293 0 0 1 13.332 13.334 13.29 13.29 0 0 1-13.332 13.332A13.293 13.293 0 0 1 96 109.334 13.294 13.294 0 0 1 109.334 96z" clip-rule="evenodd" color="#000" style="-inkscape-stroke:none"/></svg>
